X:501
M:C|
L:1/8
K:A
c|eaga bagf|eagf fedc|B2Bc dBBc|dBfB bBfB|eaga bagf|eagf fedc|
dBfB bBfB|cAEC A,CEA|ceag fedc|ABcd efed|cAAB cAA||

